X: 43
T:Scatter the Mud
R:jig
Z:added by Alf 
M:6/8
L:1/8
Q:3/8=120
K:Am
|: eAA BAA|eAA ABd|eAA BAB|dBG GBd|
eAA BAA|eAA AGE|GAB d2e|dBA A3:|
|:eae ege|edB ABd|eae ege|dBG GBd|
ea^f g2e|edB AGE|GAB dge|dBG A3:|
